src/img/play_l.svg

<svg width="26" height="51" viewBox="0 0 26 51" fill="none" xmlns="http://www.w3.org/2000/svg">
<path d="M19.5586 0.822998H25.8086V50.823H19.5586V44.573H13.3086V35.198H7.05859V28.948H0.808594V22.698H7.05859V16.448H13.3086V7.073H19.5586V0.822998Z" fill="#3B2027"/>
</svg>

<svg width="26" height="51" fill="none" xmlns="http://www.w3.org/2000/svg"><path d="M19.559.823h6.25v50h-6.25v-6.25h-6.25v-9.375h-6.25v-6.25H.809v-6.25h6.25v-6.25h6.25V7.073h6.25V.823z" fill="#3B2027"/></svg>
